dist/assets/images/archmove/icon1.svg

<svg width="39" height="48" viewBox="0 0 39 48" fill="none" xmlns="http://www.w3.org/2000/svg">
<path d="M2 2H37V46H2V2Z" stroke="black" stroke-width="4"/>
<path d="M23.2542 38V36.7661C26.3077 36.5017 28 34.9153 28 32.3301C28 30.1267 26.7676 28.7656 24.3487 28.2661L23.2542 28.0507V25.0052C24.0452 25.1423 24.6246 25.818 24.6522 26.5916H27.7425C27.7149 24.2609 25.9858 22.6158 23.2542 22.3416V21H21.9298V22.3318C18.959 22.5668 17.2483 24.1532 17.2483 26.6895C17.2483 28.8341 18.4808 30.2442 20.8353 30.7926L21.9298 31.0472V34.2005C20.9457 34.0927 20.2375 33.4171 20.1915 32.5553H17C17.0092 35.0622 18.8211 36.6192 21.9298 36.7857V38H23.2542ZM24.8545 32.7316C24.8545 33.5639 24.2567 34.1221 23.2542 34.2005V31.2823C24.3303 31.4977 24.8545 31.9775 24.8545 32.7316ZM20.4766 26.3566C20.4766 25.6025 21.0744 25.0444 21.9298 24.9856V27.7667C20.9824 27.5611 20.4766 27.0714 20.4766 26.3566Z" fill="#FD665E"/>
</svg>

<svg width="39" height="48" fill="none" xmlns="http://www.w3.org/2000/svg"><path d="M2 2h35v44H2V2z" stroke="#000" stroke-width="4"/><path d="M23.254 38v-1.234C26.308 36.502 28 34.916 28 32.33c0-2.203-1.232-3.564-3.651-4.064l-1.095-.215v-3.046c.791.137 1.37.813 1.398 1.587h3.09c-.027-2.331-1.756-3.976-4.488-4.25V21H21.93v1.332c-2.971.235-4.682 1.821-4.682 4.357 0 2.145 1.233 3.555 3.587 4.104l1.095.254V34.2c-.984-.107-1.692-.783-1.738-1.645H17c.01 2.507 1.821 4.064 4.93 4.23V38h1.324zm1.6-5.268c0 .832-.597 1.39-1.6 1.468v-2.918c1.076.216 1.6.695 1.6 1.45zm-4.377-6.375c0-.755.597-1.313 1.453-1.371v2.78c-.948-.205-1.453-.695-1.453-1.41z" fill="#FD665E"/></svg>
